X: 11320
T: Eagles, The
R: waltz
M: 3/4
K: Eminor
"Em"z2 BBB2|B2A2B2|"B"B4A2-|A4z2|"D"z2A2A2|A2B2A2|"A"BGE4-|E6|
"C"z2B2>B2|B2A2G2|"G"B2A2G2-|G6|"Am"A4A2|A2B2B2|"B"B6-|B4AF|
"Em"z2 BBB2|B2c2B2|"B"B2A4-|A4z2|"D"z2A2A2|A2B2A2|"A"BGE4-|E6|
"C"z2B2>B2|B2A2G2|"G"B2>A2G2-|G6|"Am"A4A2|A2B2c2|"B"B6-|B2z4:|
"C" c2c2cc|c2d2>c2|c2"G"B4-|B4 BB-|"B"B2A4|A4 A2|"Em"A4 G2-|G4 z2|
"C" c2c2cc|c2d2>c2|c2"G"B4-|B4 BB-|"Am"B2A4|A2 B2-c2|c2"B"B4-|B6||

